svg/icon/ast.svg

<svg height="32" viewBox="0 0 32 32" width="32" xmlns="http://www.w3.org/2000/svg" xmlns:xlink="http://www.w3.org/1999/xlink"><defs><linearGradient id="a" x1="50%" x2="50%" y1="0%" y2="100%"><stop offset="0" stop-color="#fff" stop-opacity=".5"/><stop offset="1" stop-opacity=".5"/></linearGradient><circle id="b" cx="16" cy="15" r="15"/><filter id="c" height="111.7%" width="111.7%" x="-5.8%" y="-4.2%"><feOffset dy=".5" in="SourceAlpha" result="shadowOffsetOuter1"/><feGaussianBlur in="shadowOffsetOuter1" result="shadowBlurOuter1" stdDeviation=".5"/><feComposite in="shadowBlurOuter1" in2="SourceAlpha" operator="out" result="shadowBlurOuter1"/><feColorMatrix in="shadowBlurOuter1" values="0 0 0 0 0   0 0 0 0 0   0 0 0 0 0  0 0 0 0.199473505 0"/></filter><path id="d" d="m16.01 5 9.99 10.1401015-.3748.3402031c-.1676.160203-.3451.3103553-.5325.4605076-.3258.2603046-.6706.5205076-1.0158.7507614-1.4103.9509645-2.9586 1.6416244-4.5957 2.0420305-1.1364815.2801636-2.3018941.4213016-3.4714.4204061-1.479 0-2.949-.2202031-4.359-.6706599-1.4402001-.4515337-2.80137366-1.1305106-4.0335-2.0119797-.3254-.2402031-.6509-.4904569-.9566-.7507615-.0986-.08-.1873-.1601015-.2761-.240203l-.3846-.3403046 1.0947-1.111066zm8.7377 10.4704569h-.0002c.148-.1201016.2959-.2402031.4241-.3703554l-9.1716-9.28934008-9.1715 9.28913708.1874.160203c.3057.2503554.6114.5006092.927.7208122 2.3591741 1.6913722 5.1789978 2.5940884 8.0671 2.5825381 1.1265382-.0012799 2.2489031-.1390044 3.3433-.4102538 1.573838-.3882731 3.0689311-1.0521935 4.4181-1.961929.3379878-.2222371.6638966-.4628589.9763-.7208121zm-15.0298-.4806092c1.9344611-.8612263 4.0222352-1.3108808 6.1345-1.3212183 2.4852 0 4.931.6607107 7.071 1.921929l.1381.0801015-.1381.0900508c-1.4174664.9090548-2.9947822 1.5311109-4.645 1.8318781l-.0394.0101523-.03-.0203046c-2.5258619-1.5709477-5.430343-2.4023843-8.3925-2.4024365h-.5424zm8.6391 2.0020305.0003.0004061c1.2522-.2402031 2.4455-.6706599 3.55-1.2912691-1.8836-.9613198-3.9551-1.4517766-6.0651-1.4517766-1.2693125-.0010456-2.5330345.1706699-3.7574.5105584 2.2192741.299942 4.3541616 1.0596822 6.2722 2.2320812zm3.3038 1.9720812c-.4438.6006091-.9172 1.1911675-1.42 1.7517766l-4.2308 4.284264-2.9784-3.0130964.6312-.04c2.1033187-.1292494 4.1502291-.7419263 5.9862-1.7917767.5518-.2702538 2.0118-1.1911675 2.0118-1.1911675zm-7.3471 3.5035533 1.6963 1.7217259 2.998-3.0430457c-1.4793.7106599-3.0671 1.1511675-4.6943 1.3213198z"/><filter id="e" height="117.5%" width="117.5%" x="-8.8%" y="-6.2%"><feOffset dy=".5" in="SourceAlpha" result="shadowOffsetOuter1"/><feGaussianBlur in="shadowOffsetOuter1" result="shadowBlurOuter1" stdDeviation=".5"/><feColorMatrix in="shadowBlurOuter1" values="0 0 0 0 0   0 0 0 0 0   0 0 0 0 0  0 0 0 0.204257246 0"/></filter></defs><g fill="none" fill-rule="evenodd"><use fill="#000" filter="url(#c)" xlink:href="#b"/><use fill="#0061ff" xlink:href="#b"/><use fill="url(#a)" xlink:href="#b"/><circle cx="16" cy="15" r="14.5" stroke="#000" stroke-opacity=".097"/><g fill-rule="nonzero"><use fill="#000" filter="url(#e)" xlink:href="#d"/><use fill="#fff" fill-rule="evenodd" xlink:href="#d"/></g></g></svg>

<svg xmlns="http://www.w3.org/2000/svg" xmlns:xlink="http://www.w3.org/1999/xlink" width="32" height="32" viewBox="0 0 32 32">
  <defs>
    <linearGradient id="ast-c" x1="50%" x2="50%" y1="0%" y2="100%">
      <stop offset="0%" stop-color="#FFF" stop-opacity=".5"/>
      <stop offset="100%" stop-opacity=".5"/>
    </linearGradient>
    <circle id="ast-b" cx="16" cy="15" r="15"/>
    <filter id="ast-a" width="111.7%" height="111.7%" x="-5.8%" y="-4.2%" filterUnits="objectBoundingBox">
      <feOffset dy=".5" in="SourceAlpha" result="shadowOffsetOuter1"/>
      <feGaussianBlur in="shadowOffsetOuter1" result="shadowBlurOuter1" stdDeviation=".5"/>
      <feComposite in="shadowBlurOuter1" in2="SourceAlpha" operator="out" result="shadowBlurOuter1"/>
      <feColorMatrix in="shadowBlurOuter1" values="0 0 0 0 0   0 0 0 0 0   0 0 0 0 0  0 0 0 0.199473505 0"/>
    </filter>
    <path id="ast-e" d="M16.01,5 L26,15.1401015 L25.6252,15.4803046 C25.4576,15.6405076 25.2801,15.7906599 25.0927,15.9408122 C24.7669,16.2011168 24.4221,16.4613198 24.0769,16.6915736 C22.6666,17.6425381 21.1183,18.333198 19.4812,18.7336041 C18.3447185,19.0137677 17.1793059,19.1549057 16.0098,19.1540102 C14.5308,19.1540102 13.0608,18.9338071 11.6508,18.4833503 C10.2105999,18.0318166 8.84942634,17.3528397 7.6173,16.4713706 C7.2919,16.2311675 6.9664,15.9809137 6.6607,15.7206091 C6.5621,15.6406091 6.4734,15.5605076 6.3846,15.4804061 L6,15.1401015 L7.0947,14.0290355 L16.01,5 Z M24.7477,15.4704569 L24.7475,15.4704569 C24.8955,15.3503553 25.0434,15.2302538 25.1716,15.1001015 L16,5.81076142 L6.8285,15.0998985 L7.0159,15.2601015 C7.3216,15.5104569 7.6273,15.7607107 7.9429,15.9809137 C10.3020741,17.6722859 13.1218978,18.5750021 16.01,18.5634518 C17.1365382,18.5621719 18.2589031,18.4244474 19.3533,18.153198 C20.927138,17.7649249 22.4222311,17.1010045 23.7714,16.191269 C24.1093878,15.9690319 24.4352966,15.7284101 24.7477,15.4704569 Z M9.7179,14.9898477 C11.6523611,14.1286214 13.7401352,13.6789669 15.8524,13.6686294 C18.3376,13.6686294 20.7834,14.3293401 22.9234,15.5905584 L23.0615,15.6706599 L22.9234,15.7607107 C21.5059336,16.6697655 19.9286178,17.2918216 18.2784,17.5925888 L18.239,17.6027411 L18.209,17.5824365 C15.6831381,16.0114888 12.778657,15.1800522 9.8165,15.18 L9.2741,15.18 L9.7179,14.9898477 Z M18.357,16.9918782 L18.3573,16.9922843 C19.6095,16.7520812 20.8028,16.3216244 21.9073,15.7010152 C20.0237,14.7396954 17.9522,14.2492386 15.8422,14.2492386 C14.5728875,14.248193 13.3091655,14.4199085 12.0848,14.759797 C14.3040741,15.059739 16.4389616,15.8194792 18.357,16.9918782 Z M21.6608,18.9639594 C21.217,19.5645685 20.7436,20.1551269 20.2408,20.715736 L16.01,25 L13.0316,21.9869036 L13.6628,21.9469036 C15.7661187,21.8176542 17.8130291,21.2049773 19.649,20.1551269 C20.2008,19.8848731 21.6608,18.9639594 21.6608,18.9639594 Z M14.3137,22.4675127 L16.01,24.1892386 L19.008,21.1461929 C17.5287,21.8568528 15.9409,22.2973604 14.3137,22.4675127 Z"/>
    <filter id="ast-d" width="117.5%" height="117.5%" x="-8.8%" y="-6.2%" filterUnits="objectBoundingBox">
      <feOffset dy=".5" in="SourceAlpha" result="shadowOffsetOuter1"/>
      <feGaussianBlur in="shadowOffsetOuter1" result="shadowBlurOuter1" stdDeviation=".5"/>
      <feColorMatrix in="shadowBlurOuter1" values="0 0 0 0 0   0 0 0 0 0   0 0 0 0 0  0 0 0 0.204257246 0"/>
    </filter>
  </defs>
  <g fill="none" fill-rule="evenodd">
    <use fill="#000" filter="url(#ast-a)" xlink:href="#ast-b"/>
    <use fill="#0061FF" xlink:href="#ast-b"/>
    <use fill="url(#ast-c)" style="mix-blend-mode:soft-light" xlink:href="#ast-b"/>
    <circle cx="16" cy="15" r="14.5" stroke="#000" stroke-opacity=".097"/>
    <g fill-rule="nonzero">
      <use fill="#000" filter="url(#ast-d)" xlink:href="#ast-e"/>
      <use fill="#FFF" fill-rule="evenodd" xlink:href="#ast-e"/>
    </g>
  </g>
</svg>
